icons/tokens/0x5533ed0a3b83F70c3c4a1f69Ef5546D3D4713E44/logo.svg

<svg width="32" height="32" viewBox="0 0 32 32" fill="none" xmlns="http://www.w3.org/2000/svg">
<path fill-rule="evenodd" clip-rule="evenodd" d="M32 15.9999C32 13.9059 31.5834 11.8118 30.7821 9.87706C29.9805 7.94234 28.7942 6.16698 27.3136 4.68634C25.833 3.20538 24.0576 2.01946 22.1229 1.21786C20.1882 0.416579 18.0941 -6.10352e-05 16 -6.10352e-05C13.9059 -6.10352e-05 11.8115 0.416579 9.8768 1.21786C7.94208 2.01946 6.16704 3.20538 4.68608 4.68634C3.20544 6.16698 2.0192 7.94234 1.21792 9.87706C0.41632 11.8118 0 13.9059 0 15.9999C0 18.094 0.41632 20.1881 1.21792 22.1228C2.0192 24.0575 3.20544 25.8329 4.68608 27.3139C6.16704 28.7945 7.94208 29.9807 9.8768 30.782C11.8115 31.5833 13.9059 31.9999 16 31.9999C18.0941 31.9999 20.1882 31.5833 22.1229 30.782C24.0576 29.9807 25.833 28.7945 27.3136 27.3139C28.7942 25.8329 29.9805 24.0575 30.7821 22.1228C31.5834 20.1881 32 18.094 32 15.9999Z" fill="white"/>
<path fill-rule="evenodd" clip-rule="evenodd" d="M11.8547 3.38361C13.3453 2.89369 14.9382 2.66969 16.5162 2.73017C18.0944 2.79065 19.6579 3.13593 21.113 3.74393C22.5683 4.35193 23.9152 5.22297 25.0675 6.29753C26.5917 7.71929 27.775 9.49753 28.4848 11.4867C29.1949 13.4761 29.4314 15.6764 29.1574 17.7711C28.8838 19.8659 28.0998 21.8553 26.9139 23.566C25.728 25.2767 24.1398 26.7084 22.2746 27.7004C20.4093 28.6921 18.2662 29.2438 16.1539 29.2758C14.0416 29.3078 11.9597 28.8204 10.095 27.895C8.23073 26.9695 6.58337 25.6063 5.33249 23.9036C4.08161 22.2009 3.22721 20.1587 2.88801 18.0748C2.54881 15.9907 2.72481 13.8646 3.37473 11.8812C3.86593 10.3817 4.62817 8.96409 5.6048 7.73561H4.12033V5.28185H9.93696V10.7135H7.48321V9.22937C6.68321 10.2355 6.05857 11.3967 5.65633 12.6255C5.12417 14.2511 4.98081 15.9951 5.25633 17.6969C5.59873 19.8137 6.58881 21.8649 8.06657 23.4457C9.83425 25.3363 12.2995 26.5542 14.8659 26.8207C17.432 27.0873 20.0992 26.4028 22.2173 24.9286C24.3354 23.4543 25.905 21.1903 26.5421 18.6899C27.1792 16.1894 26.8838 13.4524 25.735 11.142C24.5862 8.83161 22.5837 6.94841 20.1891 5.95897C17.7946 4.96921 15.0077 4.87385 12.6038 5.66361L11.8547 3.38361Z" fill="url(#paint0_linear)"/>
<circle cx="16" cy="16" r="8" fill="black"/>
<circle cx="16" cy="16" r="8" fill="url(#paint1_linear)"/>
<circle cx="16" cy="16" r="6.93333" fill="white"/>
<circle cx="15.9833" cy="15.9833" r="6.31667" fill="black"/>
<path d="M15.6437 18.8368C15.3472 18.8142 15.0685 18.7521 14.8076 18.6506C14.5467 18.5434 14.3213 18.4051 14.1316 18.2359C13.9418 18.0666 13.7906 17.8719 13.6779 17.6519C13.5652 17.4319 13.5059 17.1921 13.5 16.9325H14.5941C14.606 17.209 14.7068 17.4403 14.8965 17.6265C15.0922 17.8071 15.3413 17.9114 15.6437 17.9397V16.2639L15.2257 16.2047C14.7453 16.1426 14.3628 15.9705 14.0782 15.6884C13.7995 15.4063 13.6601 15.048 13.6601 14.6136C13.6601 14.3879 13.7135 14.1763 13.8202 13.9788C13.927 13.7757 14.0723 13.598 14.2561 13.4457C14.4399 13.2877 14.6504 13.1607 14.8876 13.0648C15.1287 12.9694 15.3837 12.9095 15.6437 12.8871V12.1H16.2931V12.904C16.5599 12.9379 16.806 13.0056 17.0314 13.1071C17.2567 13.203 17.4524 13.3272 17.6184 13.4795C17.7845 13.6319 17.9149 13.8068 18.0098 14.0042C18.1106 14.2017 18.167 14.4133 18.1788 14.639H17.0847C17.0729 14.4359 16.9928 14.261 16.8446 14.1143C16.7022 13.9619 16.5184 13.8575 16.2931 13.8011V15.3499L16.5955 15.3922C16.8208 15.4261 17.0343 15.4853 17.236 15.5699C17.4376 15.6546 17.6125 15.7646 17.7608 15.9C17.9149 16.0354 18.0336 16.199 18.1166 16.3909C18.2055 16.5771 18.25 16.7886 18.25 17.0256C18.25 17.2795 18.1996 17.5108 18.0988 17.7196C18.0039 17.9227 17.8675 18.1033 17.6896 18.2613C17.5176 18.4136 17.3101 18.5405 17.0669 18.6421C16.8297 18.738 16.5718 18.8001 16.2931 18.8283V19.7H15.6437V18.8368V18.8368ZM16.2931 17.9312C16.5718 17.886 16.7882 17.7901 16.9424 17.6434C17.0966 17.4911 17.1737 17.2993 17.1737 17.0679C17.1737 16.8535 17.0996 16.6956 16.9513 16.594C16.8031 16.4868 16.6341 16.4163 16.4443 16.3824L16.2931 16.357V17.9312V17.9312ZM15.6437 13.7757C15.3947 13.8096 15.1812 13.897 15.0033 14.0381C14.8313 14.1735 14.7453 14.3569 14.7453 14.5882C14.7453 14.7857 14.8017 14.9352 14.9143 15.0368C15.0329 15.1327 15.1871 15.1947 15.3769 15.2229L15.6437 15.2653V13.7757V13.7757Z" fill="white"/>
<defs>
<linearGradient id="paint0_linear" x1="2.04343" y1="13.297" x2="15.2222" y2="29.5764" gradientUnits="userSpaceOnUse">
<stop stop-color="#004CFF"/>
<stop offset="0.252131" stop-color="#00E0FB"/>
<stop offset="0.505709" stop-color="#87FF70"/>
<stop offset="0.755054" stop-color="#F8F500"/>
<stop offset="1" stop-color="#FF1A00"/>
</linearGradient>
<linearGradient id="paint1_linear" x1="8" y1="8" x2="24" y2="24" gradientUnits="userSpaceOnUse">
<stop stop-color="white"/>
<stop offset="1" stop-color="white" stop-opacity="0"/>
</linearGradient>
</defs>
</svg>

<svg width="32" height="32" fill="none" xmlns="http://www.w3.org/2000/svg"><path fill-rule="evenodd" clip-rule="evenodd" d="M32 16c0-2.094-.417-4.188-1.218-6.123a16.058 16.058 0 00-3.468-5.19 16.051 16.051 0 00-5.191-3.47A16.054 16.054 0 0016 0c-2.094 0-4.188.417-6.123 1.218a16.055 16.055 0 00-5.19 3.468 16.05 16.05 0 00-3.47 5.191A16.049 16.049 0 000 16c0 2.094.416 4.188 1.218 6.123a16.056 16.056 0 003.468 5.19 16.055 16.055 0 005.19 3.469A16.056 16.056 0 0016 32c2.094 0 4.188-.417 6.123-1.218a16.051 16.051 0 005.19-3.468 16.063 16.063 0 003.47-5.191A16.054 16.054 0 0032 16z" fill="#fff"/><path fill-rule="evenodd" clip-rule="evenodd" d="M11.855 3.384a13.267 13.267 0 0113.213 2.914 13.155 13.155 0 013.417 5.189c.71 1.99.946 4.19.672 6.284a13.194 13.194 0 01-2.243 5.795 13.207 13.207 0 01-4.64 4.134 13.622 13.622 0 01-6.12 1.576 13.207 13.207 0 01-6.059-1.381 13.19 13.19 0 01-4.763-3.991 13.662 13.662 0 01-2.444-5.83 13.13 13.13 0 01.487-6.193 13.392 13.392 0 012.23-4.145H4.12V5.282h5.817v5.431H7.483V9.23a10.961 10.961 0 00-1.827 3.397 10.787 10.787 0 00-.4 5.07 11.107 11.107 0 002.81 5.75 10.952 10.952 0 006.8 3.375 11.023 11.023 0 007.351-1.892 10.999 10.999 0 004.325-6.24c.637-2.5.342-5.237-.807-7.547a10.919 10.919 0 00-5.546-5.183c-2.394-.99-5.181-1.085-7.585-.295l-.75-2.28z" fill="url(#paint0_linear)"/><circle cx="16" cy="16" r="8" fill="#000"/><circle cx="16" cy="16" r="8" fill="url(#paint1_linear)"/><circle cx="16" cy="16" r="6.933" fill="#fff"/><circle cx="15.983" cy="15.983" r="6.317" fill="#000"/><path d="M15.644 18.837a2.901 2.901 0 01-.836-.186 2.343 2.343 0 01-.676-.415 1.999 1.999 0 01-.454-.584 1.638 1.638 0 01-.178-.72h1.094a.997.997 0 00.303.695c.195.18.444.284.747.313v-1.676l-.418-.06c-.48-.061-.863-.234-1.148-.516-.278-.282-.418-.64-.418-1.074 0-.226.053-.438.16-.635a1.74 1.74 0 01.436-.533 2.26 2.26 0 01.632-.381c.24-.096.496-.155.756-.178V12.1h.65v.804c.266.034.512.102.737.203.226.096.421.22.587.373.167.152.297.327.392.524.1.198.157.41.169.635h-1.094a.78.78 0 00-.24-.525 1.1 1.1 0 00-.552-.313v1.549l.303.042c.225.034.438.093.64.178.202.085.377.195.525.33.154.135.273.299.356.49.088.187.133.399.133.636 0 .253-.05.485-.151.694a1.662 1.662 0 01-.41.541c-.171.153-.379.28-.622.381a2.808 2.808 0 01-.774.186v.872h-.65v-.863zm.65-.906c.278-.045.494-.14.648-.288a.775.775 0 00.232-.575c0-.215-.074-.372-.223-.474a1.218 1.218 0 00-.507-.212l-.15-.025v1.574zm-.65-4.155a1.288 1.288 0 00-.64.262.663.663 0 00-.259.55c0 .198.057.347.17.449a.94.94 0 00.462.186l.267.042v-1.49z" fill="#fff"/><defs><linearGradient id="paint0_linear" x1="2.043" y1="13.297" x2="15.222" y2="29.576" gradientUnits="userSpaceOnUse"><stop stop-color="#004CFF"/><stop offset=".252" stop-color="#00E0FB"/><stop offset=".506" stop-color="#87FF70"/><stop offset=".755" stop-color="#F8F500"/><stop offset="1" stop-color="#FF1A00"/></linearGradient><linearGradient id="paint1_linear" x1="8" y1="8" x2="24" y2="24" gradientUnits="userSpaceOnUse"><stop stop-color="#fff"/><stop offset="1" stop-color="#fff" stop-opacity="0"/></linearGradient></defs></svg>
